source/assets/images/flags/Vanuatu.svg

<?xml version="1.0" encoding="UTF-8" standalone="no"?>
<svg width="1000px" height="600px" viewBox="0 0 1000 600" version="1.1" xmlns="http://www.w3.org/2000/svg" xmlns:xlink="http://www.w3.org/1999/xlink" xmlns:sketch="http://www.bohemiancoding.com/sketch/ns">
    <!-- Generator: Sketch 3.3.3 (12072) - http://www.bohemiancoding.com/sketch -->
    <title>Vanuatu</title>
    <desc>Created with Sketch.</desc>
    <defs></defs>
    <g id="Page-1" stroke="none" stroke-width="1" fill="none" fill-rule="evenodd" sketch:type="MSPage">
        <g id="Vanuatu" sketch:type="MSLayerGroup">
            <path d="M0,300 L1000,300 L1000,0 L0,0 L0,300 Z" id="Fill-1" fill="#C02537" sketch:type="MSShapeGroup"></path>
            <path d="M0,600 L1000,600 L1000,300 L0,300 L0,600 Z" id="Fill-2" fill="#0C8B44" sketch:type="MSShapeGroup"></path>
            <path d="M477.778333,353.683333 L0,600 L0,0 L477.778333,246.316667 L1000,246.316667 L1000,353.683333 L477.778333,353.683333" id="Fill-3" fill="#0A0A08" sketch:type="MSShapeGroup"></path>
            <path d="M468.588333,315.788333 L0,557.365 L0,42.6333333 L468.583333,284.21 L1000,284.21 L1000,315.788333 L468.588333,315.788333" id="Fill-4" fill="#F7CA2A" sketch:type="MSShapeGroup"></path>
            <path d="M0,521.836667 L430.296667,300 L0,78.1633333 L0,521.836667" id="Fill-5" fill="#0A0A08" sketch:type="MSShapeGroup"></path>
            <path d="M121.558333,357.393333 L121.558333,391.578333 C151.298333,391.578333 209.663333,368.788333 209.663333,295.415 C209.663333,222.04 147.406667,208.42 128.785,208.42 C110.163333,208.42 52.6316667,221.761667 52.6316667,281.795 C52.6316667,341.828333 109.051667,347.388333 120.168333,347.388333 C131.285,347.388333 172.976667,337.381667 168.251667,292.356667 C168.251667,305.141667 153.8,332.101667 123.503333,332.101667 C93.2083333,332.101667 74.31,309.588333 74.31,287.355 C74.31,265.118333 92.6533333,235.38 124.615,235.38 C156.576667,235.38 179.923333,263.728333 179.923333,292.356667 C179.923333,320.983333 157.411667,357.393333 121.558333,357.393333" id="Fill-6" fill="#F7CA2A" sketch:type="MSShapeGroup"></path>
            <path d="M117.218333,282.858333 C117.775,282.27 118.336667,281.686667 118.903333,281.108333 C118.886667,280.346667 118.888333,279.303333 118.963333,278.181667 C118.503333,277.938333 118.126667,277.676667 117.865,277.398333 C117.89,279.008333 117.515,281.306667 117.218333,282.858333 L117.218333,282.858333 Z M133.835,282.856667 C133.536667,281.306667 133.161667,279.008333 133.186667,277.398333 C132.925,277.676667 132.548333,277.938333 132.09,278.181667 C132.163333,279.303333 132.166667,280.346667 132.15,281.108333 C132.716667,281.686667 133.278333,282.27 133.835,282.856667 L133.835,282.856667 Z M120.771667,282.751667 C121.725,282.466667 122.941667,282.13 124.048333,281.898333 C124.186667,281.623333 124.753333,281.573333 125.526667,281.653333 C126.3,281.573333 126.866667,281.623333 127.005,281.898333 C128.111667,282.13 129.326667,282.466667 130.281667,282.751667 L130.08,282.545 C129.443333,281.89 128.8,281.241667 128.151667,280.6 C127.451667,280.493333 126.531667,280.343333 125.526667,280.146667 C124.52,280.343333 123.601667,280.493333 122.901667,280.6 C122.183333,281.31 121.473333,282.026667 120.771667,282.751667 L120.771667,282.751667 Z M127.535,276.22 C127.536667,276.353333 127.538333,276.48 127.538333,276.601667 L127.593333,276.651667 C128.025,276.535 128.48,276.42 128.935,276.313333 C128.868333,275.923333 128.808333,275.526667 128.756667,275.135 L128.746667,275.136667 C128.341667,275.495 127.936667,275.856667 127.535,276.22 L127.535,276.22 Z M123.46,276.651667 L123.513333,276.601667 C123.515,276.48 123.515,276.353333 123.518333,276.22 C123.115,275.856667 122.711667,275.495 122.305,275.136667 L122.296667,275.135 C122.245,275.526667 122.183333,275.923333 122.116667,276.313333 C122.573333,276.42 123.026667,276.535 123.46,276.651667 L123.46,276.651667 Z M132.85,271.645 C135.458333,271.106667 140.05,270.411667 139.068333,272.45 C138.311667,274.023333 134.69,274.683333 131.641667,274.961667 C131.708333,275.248333 131.768333,275.543333 131.82,275.843333 C132.511667,275.805 133.065,275.865 133.36,276.08 C133.556667,275.503333 133.94,275.313333 134.6,275.785 C136.836667,277.383333 136.748333,283.201667 136.583333,285.835 C137.18,286.498333 137.771667,287.166667 138.356667,287.838333 C137.668333,284.588333 136.6,278.255 139.186667,280.058333 C141.85,281.915 141.513333,288.4 141.225,291.228333 C141.801667,291.93 142.373333,292.635 142.94,293.345 C142.571667,290.143333 142.03,283.436667 144.188333,284.956667 C146.425,286.531667 145.701667,293.56 145.308333,296.386667 C145.793333,297.023333 146.273333,297.663333 146.75,298.306667 C146.47,294.968333 146.08,287.545 148.356667,289.335 C150.668333,291.15 149.516667,298.388333 148.936667,301.325 C149.341667,301.896667 149.745,302.471667 150.145,303.05 C149.82,299.251667 149.46,291.396667 152.423333,294.441667 C155.475,297.575 153.37,303.841667 152.36,306.321667 L152.506667,306.543333 C153.745,308.418333 154.948333,310.315 156.121667,312.228333 L156.685,313.148333 C155.593333,313.853333 154.501667,314.56 153.411667,315.266667 C153.266667,314.94 153.123333,314.613333 152.976667,314.286667 C152.923333,314.166667 152.866667,314.048333 152.811667,313.928333 C152.225,312.686667 151.586667,311.466667 150.926667,310.261667 C150.778333,309.993333 150.63,309.726667 150.48,309.46 C147.418333,308.658333 139.623333,306.396667 139.706667,304.135 C139.788333,301.95 145.958333,304.976667 148.718333,306.441667 C148.54,306.15 148.361667,305.858333 148.181667,305.568333 C148.031667,305.323333 147.88,305.08 147.726667,304.838333 C145.121667,304.158333 137.971667,302.061667 137.206667,299.34 C136.501667,296.833333 142.566667,299.92 145.623333,301.608333 C145.226667,301.02 144.826667,300.435 144.42,299.853333 C141.716667,298.88 135.438333,296.388333 134.703333,294.025 C134.051667,291.92 138.4,293.908333 141.101667,295.31 C140.658333,294.73 140.211667,294.153333 139.76,293.58 C136.96,292.8 130.525,290.736667 129.388333,287.98 C128.318333,285.38 133.64,288.051667 136.553333,289.661667 C135.753333,288.718333 134.94,287.786667 134.115,286.865 C132.106667,286.528333 128.065,285.653333 125.526667,283.783333 C122.986667,285.653333 118.945,286.528333 116.938333,286.865 C116.113333,287.786667 115.3,288.718333 114.5,289.661667 C117.413333,288.051667 122.735,285.38 121.663333,287.98 C120.528333,290.736667 114.093333,292.8 111.293333,293.58 C111.156667,293.751667 111.021667,293.925 110.886667,294.096667 C110.573333,294.5 110.26,294.903333 109.951667,295.31 C112.653333,293.908333 117.001667,291.92 116.348333,294.025 C115.615,296.388333 109.336667,298.88 106.633333,299.853333 L106.521667,300.013333 C106.153333,300.543333 105.788333,301.075 105.428333,301.608333 C108.485,299.92 114.55,296.833333 113.845,299.34 C113.081667,302.061667 105.931667,304.158333 103.326667,304.838333 C103.093333,305.206667 102.863333,305.578333 102.635,305.95 C102.535,306.115 102.435,306.278333 102.335,306.441667 C105.093333,304.976667 111.263333,301.95 111.345,304.135 C111.428333,306.396667 103.635,308.658333 100.571667,309.46 C100.371667,309.818333 100.171667,310.176667 99.9766667,310.538333 C99.635,311.163333 99.3016667,311.793333 98.9783333,312.428333 C98.685,313.006667 98.3983333,313.588333 98.125,314.176667 L98.075,314.286667 C97.93,314.613333 97.7866667,314.94 97.6416667,315.266667 L94.3683333,313.148333 C94.6483333,312.69 94.9266667,312.233333 95.2083333,311.776667 C96.3416667,309.94 97.5016667,308.12 98.6933333,306.32 C97.6816667,303.841667 95.5783333,297.575 98.6283333,294.441667 C101.593333,291.396667 101.233333,299.251667 100.908333,303.05 C101.308333,302.471667 101.71,301.896667 102.116667,301.325 C101.536667,298.388333 100.383333,291.15 102.695,289.335 C104.973333,287.545 104.583333,294.968333 104.303333,298.306667 C104.778333,297.663333 105.26,297.023333 105.745,296.386667 C105.351667,293.56 104.628333,286.531667 106.863333,284.956667 C109.023333,283.436667 108.481667,290.145 108.113333,293.345 C108.486667,292.876667 108.863333,292.408333 109.243333,291.941667 C109.436667,291.703333 109.631667,291.466667 109.828333,291.228333 C109.54,288.4 109.201667,281.915 111.865,280.058333 C114.453333,278.255 113.385,284.588333 112.696667,287.838333 C113.281667,287.166667 113.871667,286.498333 114.468333,285.835 C114.305,283.201667 114.216667,277.383333 116.451667,275.785 C117.113333,275.313333 117.495,275.503333 117.691667,276.08 C117.988333,275.865 118.541667,275.805 119.231667,275.843333 C119.285,275.543333 119.343333,275.248333 119.411667,274.961667 C116.363333,274.683333 112.741667,274.023333 111.983333,272.45 C111.003333,270.411667 115.593333,271.106667 118.201667,271.645 C117.59,271.145 116.975,270.648333 116.355,270.158333 C113.775,270.126667 108.048333,269.863333 107.085,268.176667 C106.203333,266.633333 110.663333,267.318333 113.366667,267.856667 C112.875,267.488333 112.38,267.121667 111.881667,266.758333 C109.29,266.805 103.488333,266.693333 102.603333,264.841667 C101.823333,263.208333 105.97,263.896667 108.696667,264.501667 C108.098333,264.09 107.498333,263.683333 106.893333,263.28 C103.136667,262.801667 94.7266667,261.521667 95.62,259.735 C96.25,258.476667 99.3933333,259.26 102.1,260.221667 C101.955,260.133333 101.81,260.045 101.663333,259.956667 L98.6066667,258.108333 L98.92,257.561667 C97.6433333,256.501667 96.7666667,255.316667 97.3916667,254.315 C98.5383333,252.48 101.255,256.365 102.621667,258.565 C103.001667,258.77 103.381667,258.973333 103.76,259.178333 C103.956667,259.285 104.153333,259.391667 104.348333,259.5 L104.511667,259.59 C102.975,257.563333 101.078333,254.703333 102.915,255.043333 C104.945,255.42 107.298333,259.588333 108.453333,261.886667 C108.615,261.985 108.776667,262.085 108.936667,262.185 C109.253333,262.38 109.568333,262.578333 109.881667,262.78 C108.213333,260.165 105.87,256.066667 108.023333,256.711667 C110.365,257.415 112.3,262.45 113.121667,264.928333 C113.62,265.271667 114.115,265.618333 114.606667,265.97 C113.226667,263.395 111.343333,259.326667 113.651667,260.046667 C116.168333,260.835 117.438333,265.953333 117.91,268.418333 C118.141667,268.595 118.371667,268.773333 118.601667,268.953333 C118.93,269.208333 119.258333,269.466667 119.585,269.726667 C118.485,266.921667 116.766667,261.866667 118.966667,262.548333 C121.283333,263.268333 122.251667,269.371667 122.58,272.186667 C122.97,272.516667 123.356667,272.848333 123.743333,273.183333 C123.781667,272.906667 123.826667,272.628333 123.878333,272.348333 C123.016667,269.685 122.361667,266.55 124.49,267.551667 C124.883333,267.736667 125.226667,268.008333 125.526667,268.343333 C125.825,268.008333 126.168333,267.736667 126.561667,267.551667 C128.691667,266.55 128.036667,269.685 127.173333,272.348333 C127.226667,272.628333 127.27,272.906667 127.31,273.183333 C127.695,272.85 128.083333,272.516667 128.473333,272.186667 C128.8,269.371667 129.77,263.268333 132.085,262.548333 C134.285,261.866667 132.566667,266.921667 131.468333,269.726667 C132.023333,269.286667 132.58,268.85 133.143333,268.418333 C133.615,265.953333 134.883333,260.835 137.4,260.046667 C139.708333,259.326667 137.826667,263.395 136.446667,265.97 C136.938333,265.62 137.433333,265.271667 137.931667,264.928333 C138.753333,262.45 140.686667,257.415 143.028333,256.711667 C145.183333,256.066667 142.84,260.165 141.17,262.78 C141.643333,262.478333 142.12,262.18 142.598333,261.886667 C143.753333,259.588333 146.108333,255.42 148.136667,255.043333 C149.973333,254.703333 148.078333,257.563333 146.541667,259.588333 C146.663333,259.521667 146.785,259.455 146.906667,259.388333 C147.413333,259.111667 147.921667,258.838333 148.431667,258.565 C149.798333,256.365 152.513333,252.48 153.66,254.315 C154.286667,255.316667 153.41,256.501667 152.133333,257.561667 L152.445,258.108333 C151.353333,258.768333 150.26,259.426667 149.168333,260.09 L148.951667,260.221667 C151.658333,259.26 154.803333,258.476667 155.431667,259.735 C156.325,261.521667 147.915,262.801667 144.158333,263.28 L144.06,263.346667 C143.488333,263.726667 142.921667,264.111667 142.356667,264.501667 C145.081667,263.896667 149.23,263.208333 148.448333,264.841667 C147.563333,266.693333 141.763333,266.805 139.171667,266.758333 C138.673333,267.121667 138.178333,267.488333 137.685,267.856667 C140.39,267.318333 144.848333,266.633333 143.966667,268.176667 C143.003333,269.863333 137.276667,270.126667 134.698333,270.158333 C134.078333,270.648333 133.461667,271.145 132.85,271.645 L132.85,271.645 Z" id="Fill-7" fill="#F7CA2A" sketch:type="MSShapeGroup"></path>
        </g>
    </g>
</svg>

<svg width="1000" height="600" viewBox="0 0 1000 600" xmlns="http://www.w3.org/2000/svg"><title>Vanuatu</title><g fill="none" fill-rule="evenodd"><path d="M0 300h1000V0H0v300z" fill="#C02537"/><path d="M0 600h1000V300H0v300z" fill="#0C8B44"/><path d="M477.778 353.683L0 600V0l477.778 246.317H1000v107.366H477.778" fill="#0A0A08"/><path d="M468.588 315.788L0 557.365V42.633L468.583 284.21H1000v31.578H468.588" fill="#F7CA2A"/><path d="M0 521.837L430.297 300 0 78.163v443.674" fill="#0A0A08"/><path d="M121.558 357.393v34.185c29.74 0 88.105-22.79 88.105-96.163 0-73.375-62.256-86.995-80.878-86.995s-76.153 13.342-76.153 73.375 56.42 65.593 67.536 65.593c11.117 0 52.81-10.006 48.084-55.03 0 12.784-14.452 39.744-44.75 39.744-30.294 0-49.192-22.514-49.192-44.747 0-22.237 18.343-51.975 50.305-51.975s55.308 28.348 55.308 56.977c0 28.626-22.51 65.036-58.365 65.036" fill="#F7CA2A"/><path d="M117.218 282.858c.557-.588 1.12-1.17 1.685-1.75-.016-.76-.015-1.805.06-2.926-.46-.244-.836-.505-1.098-.784.025 1.61-.35 3.91-.647 5.46zm16.617 0c-.298-1.55-.673-3.85-.648-5.46-.262.28-.64.54-1.097.784.073 1.12.077 2.165.06 2.926.567.58 1.128 1.162 1.685 1.75zm-13.063-.106c.953-.285 2.17-.622 3.276-.854.14-.275.705-.325 1.48-.245.772-.08 1.34-.03 1.477.245 1.107.232 2.322.57 3.277.854l-.202-.207c-.637-.655-1.28-1.303-1.928-1.945-.7-.107-1.62-.257-2.625-.453-1.007.196-1.925.346-2.625.453-.72.71-1.43 1.427-2.13 2.152zm6.763-6.532l.003.382.055.05c.432-.117.887-.232 1.342-.34-.067-.39-.127-.785-.178-1.177l-.01.002c-.405.358-.81.72-1.212 1.083zm-4.075.432l.053-.05c.002-.122.002-.25.005-.382-.403-.363-.806-.725-1.213-1.083l-.008-.002c-.052.392-.114.788-.18 1.178.456.107.91.222 1.343.34zm9.39-5.007c2.608-.538 7.2-1.233 6.218.805-.756 1.573-4.378 2.233-7.426 2.512.066.286.126.58.178.88.692-.037 1.245.023 1.54.238.197-.577.58-.767 1.24-.295 2.237 1.598 2.148 7.417 1.983 10.05.597.663 1.19 1.332 1.774 2.003-.69-3.25-1.757-9.583.83-7.78 2.663 1.857 2.326 8.342 2.038 11.17.577.702 1.148 1.407 1.715 2.117-.368-3.202-.91-9.908 1.248-8.388 2.237 1.575 1.514 8.603 1.12 11.43.485.636.965 1.276 1.442 1.92-.28-3.34-.67-10.762 1.607-8.972 2.31 1.815 1.16 9.053.58 11.99.405.572.808 1.147 1.208 1.725-.325-3.798-.685-11.653 2.278-8.608 3.052 3.133.947 9.4-.063 11.88l.147.22c1.238 1.876 2.44 3.773 3.615 5.686l.563.92c-1.092.705-2.183 1.412-3.273 2.12l-.435-.98-.165-.36c-.587-1.24-1.225-2.46-1.885-3.666-.15-.27-.297-.535-.447-.802-3.062-.802-10.857-3.063-10.773-5.325.08-2.185 6.25.842 9.01 2.307-.177-.292-.355-.584-.535-.874-.15-.245-.302-.488-.455-.73-2.605-.68-9.755-2.776-10.52-5.498-.705-2.507 5.36.58 8.416 2.268-.396-.588-.796-1.173-1.203-1.755-2.703-.973-8.982-3.465-9.717-5.828-.65-2.105 3.697-.117 6.4 1.285-.445-.58-.89-1.157-1.343-1.73-2.8-.78-9.235-2.843-10.372-5.6-1.07-2.6 4.252.072 7.165 1.682-.8-.944-1.613-1.875-2.438-2.797-2.008-.337-6.05-1.212-8.588-3.082-2.54 1.87-6.582 2.745-8.59 3.082-.824.922-1.637 1.853-2.437 2.797 2.913-1.61 8.235-4.282 7.163-1.682-1.135 2.757-7.57 4.82-10.37 5.6l-.406.517c-.314.403-.627.806-.935 1.213 2.7-1.402 7.05-3.39 6.396-1.285-.733 2.363-7.01 4.855-9.715 5.828l-.11.16c-.37.53-.735 1.062-1.095 1.595 3.057-1.688 9.122-4.775 8.417-2.268-.763 2.722-7.913 4.818-10.518 5.498-.234.37-.464.74-.692 1.112l-.3.492c2.758-1.465 8.928-4.492 9.01-2.307.083 2.262-7.71 4.523-10.773 5.325-.2.358-.4.717-.595 1.078-.342.625-.675 1.255-1 1.89-.292.58-.58 1.16-.852 1.75l-.05.11c-.145.325-.288.652-.433.98l-3.274-2.12.84-1.37c1.134-1.838 2.294-3.658 3.485-5.458-1.01-2.478-3.115-8.745-.065-11.878 2.965-3.045 2.605 4.81 2.28 8.608.4-.578.802-1.153 1.21-1.725-.58-2.937-1.735-10.175.577-11.99 2.278-1.79 1.888 5.633 1.608 8.972.475-.644.957-1.284 1.442-1.92-.393-2.827-1.117-9.855 1.118-11.43 2.16-1.52 1.62 5.188 1.25 8.388.374-.468.75-.937 1.13-1.403.194-.24.39-.475.585-.714-.288-2.828-.626-9.313 2.037-11.17 2.588-1.803 1.52 4.53.832 7.78.585-.67 1.175-1.34 1.77-2.003-.162-2.633-.25-8.452 1.985-10.05.66-.472 1.043-.282 1.24.295.296-.215.85-.275 1.54-.237.053-.3.11-.595.18-.88-3.05-.28-6.67-.94-7.43-2.513-.98-2.038 3.61-1.343 6.22-.805-.612-.5-1.227-.997-1.847-1.487-2.58-.03-8.307-.295-9.27-1.98-.882-1.545 3.578-.86 6.282-.32-.492-.37-.987-.736-1.485-1.1-2.592.047-8.394-.065-9.28-1.916-.78-1.634 3.368-.945 6.095-.34-.6-.412-1.2-.82-1.804-1.222-3.756-.478-12.166-1.758-11.273-3.545.63-1.258 3.773-.475 6.48.487-.145-.09-.29-.177-.437-.265l-3.056-1.85.313-.545c-1.277-1.06-2.153-2.245-1.528-3.247 1.146-1.835 3.863 2.05 5.23 4.25.38.205.76.408 1.138.613.197.107.393.214.588.322l.164.09c-1.537-2.027-3.434-4.887-1.597-4.547 2.03.377 4.383 4.545 5.538 6.844.162.098.324.198.484.298.316.195.63.393.945.595-1.67-2.615-4.012-6.713-1.86-6.068 2.343.703 4.278 5.738 5.1 8.216.498.344.993.69 1.485 1.042-1.38-2.575-3.264-6.643-.955-5.923 2.516.788 3.786 5.906 4.258 8.37.232.178.462.356.692.536.328.255.656.514.983.774-1.1-2.805-2.818-7.86-.618-7.18 2.316.72 3.285 6.825 3.613 9.64.39.33.777.66 1.163.996.04-.276.084-.555.135-.835-.86-2.663-1.516-5.798.612-4.796.393.185.737.456 1.037.79.298-.334.64-.605 1.035-.79 2.13-1.002 1.475 2.133.61 4.796.055.28.098.56.138.835.385-.333.773-.666 1.163-.996.327-2.815 1.297-8.92 3.612-9.64 2.2-.68.482 4.375-.617 7.18.555-.44 1.112-.877 1.675-1.31.472-2.464 1.74-7.582 4.257-8.37 2.308-.72.427 3.348-.953 5.923.49-.35.986-.698 1.485-1.042.82-2.478 2.755-7.513 5.096-8.216 2.155-.645-.188 3.453-1.858 6.068.473-.302.95-.6 1.428-.893 1.155-2.3 3.51-6.467 5.54-6.844 1.835-.34-.06 2.52-1.596 4.545l.365-.2c.506-.276 1.015-.55 1.525-.823 1.366-2.2 4.08-6.085 5.228-4.25.627 1.002-.25 2.187-1.527 3.247l.312.546c-1.092.66-2.185 1.32-3.277 1.982l-.216.132c2.706-.962 5.85-1.745 6.48-.487.893 1.787-7.517 3.067-11.274 3.545l-.098.067c-.572.38-1.138.765-1.703 1.155 2.725-.605 6.873-1.294 6.09.34-.884 1.85-6.684 1.963-9.275 1.916-.5.364-.994.73-1.487 1.1 2.705-.54 7.163-1.225 6.282.32-.964 1.685-6.69 1.95-9.27 1.98-.62.49-1.235.987-1.847 1.487z" fill="#F7CA2A"/></g></svg>
